X:14016
T:Nancy Dawson's Fancy
R:Reel
C:Trad.
O:England
Z:Paul Hardy's Session Tunebook 2022 (see www.paulhardy.net). Creative Commons cc by-nc-sa licenced.
M:4/4
L:1/8
Q:1/4=120
K:G
d/c/|"G"BGdB "D"A/G/F/E/ Dc|"G"BGgB "D"A3c|"G"Bgfe dB "C"ec|"G"B2 "D7"A2 "G"G3:|
|:g|"D"fe/d/ "C"ee "G"dc/B/ "Am"c2|"G"BG gB "A7"A3g|"D"fd"C"ec "G"dc/B/ "C"ec|"G"B2 "D7"A2 "G"G3:|

